X: 26687
T: Mighty Pot-Holes, The
R: reel
M: 4/4
K: Gmajor
|:D2 DG Bcde|fgag fdcA|DF F2 ABcA|defd cAGF|
DG G2 Bcde|fgag fdcA|dg g2 fgag|fdcA G2:|
|:Bd|g2 gf gdBd|g2 ag fdcA|c=ffe fcAc|=fgag ^fdcA|
dggf gdBd|g2 ag fdcA|dg g2 fgag|fdcA G2:|

